X:1
T:Wilmar, LM
T:Wilmar, LM
T:G Minns, before 1937
T:Public Domain Courtesy of the Cyber Hymnal™
C:G Minns, before 1937
Z:Public Domain
Z:Courtesy of the Cyber Hymnal™
%%score ( 1 2 ) ( 3 4 )
L:1/8
M:3/4
K:Eb
V:1 treble 
V:2 treble 
V:3 bass 
V:4 bass 
V:1
 E2 | G4 [_DB]2 | (B2 A2) [CF]2 | [B,E]4 D2 | [CE]4 [Ge]2 | (e2 d2) [=Fc]2 | [GB]4 [Gc]2 | %7
 [Fd]4 [Ec]2 | [DB]4 [FB]2 | (B2 c2) [FB]2 | [Ee]4 [Ee]2 | ([Ee]2 [Ac]2) [GB]2 | [FA]4 [FA]2 | %13
 A2 G2 [DF]2 | [EB]4 [Ec]2 | G4 [DF]2 | E4 |] %17
V:2
 E2 | (E2 _D2) x2 | C4 x2 | x4 D2 | x6 | ^F4 x2 | x6 | x6 | x6 | F4 x2 | x6 | x6 | x6 | D4 x2 | %14
 x6 | (E2 C2) x2 | E4 |] %17
V:3
 [E,G,]2 | [E,B,]4 [E,G,]2 | [A,,A,]4 [A,,A,]2 | [B,,G,]4 [=B,,A,]2 | [C,G,]4 [C,C]2 | %5
 (C2 B,2) [D,=A,]2 | (B,2 D2) [E,E]2 | [F,B,]4 [F,=A,]2 | [B,,B,]4 [B,D]2 | (D2 E2) [A,D]2 | %10
 (_D2 E2) [G,D]2 | [A,C]4 [=E,_D]2 | [F,C]4 [F,C]2 | [B,,B,]4 [A,,B,]2 | (B,2 _D2) [A,,C]2 | %15
 [B,,B,]4 [B,,A,]2 | [E,G,]4 |] %17
V:4
 x2 | x6 | x6 | x6 | x6 | D,4 x2 | G,4 x2 | x6 | x6 | A,4 x2 | G,4 x2 | x6 | x6 | x6 | G,,4 x2 | %15
 x6 | x4 |] %17

